public/logos/J9.svg

<?xml version="1.0" encoding="UTF-8"?>
<svg xmlns="http://www.w3.org/2000/svg" xmlns:xlink="http://www.w3.org/1999/xlink" width="144.27pt" height="59pt" viewBox="0 0 144.27 59" version="1.1">
<defs>
<clipPath id="clip1">
  <path d="M 138 22 L 144.269531 22 L 144.269531 30 L 138 30 Z M 138 22 "/>
</clipPath>
</defs>
<g id="surface1">
<path style=" stroke:none;fill-rule:nonzero;fill:rgb(25.248718%,62.464905%,80.522156%);fill-opacity:1;" d="M 13.816406 24.601562 C 14.355469 24.183594 14.996094 23.847656 15.152344 23.0625 C 14.902344 22.480469 14.542969 22.070312 13.914062 21.832031 C 13.238281 22.191406 12.648438 22.640625 12.421875 23.5 C 12.765625 23.90625 13.046875 24.339844 13.816406 24.601562 Z M 53.925781 28.316406 C 51.421875 29.398438 51.191406 29.390625 50.335938 28.242188 C 50.601562 27.597656 51.09375 27.898438 51.542969 27.933594 C 52.640625 28.019531 52.820312 27.871094 53.308594 26.621094 C 52.863281 26.308594 52.347656 26.175781 51.828125 26.160156 C 49.785156 26.101562 47.746094 25.777344 45.707031 26.109375 C 45.496094 26.144531 45.285156 26.15625 45.082031 26.207031 C 43.4375 26.59375 43.128906 27.15625 43.660156 28.773438 C 43.691406 28.871094 43.695312 28.980469 43.722656 29.171875 C 42.210938 29.535156 41.019531 29.003906 39.957031 27.988281 C 40.03125 27.875 40.050781 27.816406 40.082031 27.804688 C 40.667969 27.644531 41.503906 27.644531 41.289062 26.730469 C 41.101562 25.933594 40.308594 26.054688 39.695312 26.097656 C 38.128906 26.210938 37.539062 27.121094 37.980469 28.679688 C 38.023438 28.828125 38.046875 28.980469 38.09375 29.195312 C 36.5625 29.5 35.328125 29.042969 34.246094 27.960938 C 34.390625 27.851562 34.457031 27.753906 34.535156 27.746094 C 35.167969 27.6875 35.769531 27.527344 35.617188 26.734375 C 35.492188 26.089844 34.871094 26.089844 34.335938 26.082031 C 32.789062 26.058594 32.089844 26.789062 32.003906 28.511719 C 31.671875 28.730469 31.292969 28.65625 30.933594 28.664062 C 30.199219 28.679688 29.46875 28.667969 28.539062 28.667969 C 29.046875 27.765625 30.332031 27.738281 30.214844 26.613281 C 30.105469 26.371094 29.902344 26.207031 29.628906 26.171875 C 28.421875 26.027344 27.207031 26.046875 25.996094 26.109375 C 25.367188 26.140625 25.082031 26.523438 25.066406 27.121094 C 25.554688 27.574219 26.246094 27.210938 26.714844 27.609375 C 26.851562 28.085938 26.449219 28.269531 26.199219 28.488281 C 25.867188 28.78125 26.082031 29.171875 25.894531 29.5625 C 24.714844 29.332031 23.574219 29.019531 22.609375 28.132812 C 22.003906 28.605469 21.417969 29.039062 20.644531 29.085938 C 20.148438 29.117188 19.703125 29.03125 19.300781 28.753906 C 19.121094 28.628906 19.019531 28.429688 19.078125 28.207031 C 19.132812 27.980469 19.320312 27.832031 19.53125 27.828125 C 19.785156 27.820312 20.042969 27.921875 20.304688 27.945312 C 21.488281 28.042969 21.664062 27.914062 22.199219 26.59375 C 20.441406 25.917969 12.0625 25.859375 10.488281 26.546875 C 10.511719 27.441406 11.082031 27.910156 11.824219 28.179688 C 12.097656 30.132812 11.515625 34.375 10.519531 37.824219 C 12.328125 36.839844 13.496094 33.179688 14.738281 27.785156 C 15.480469 27.605469 16.253906 27.675781 17.097656 27.730469 C 17.097656 28.273438 16.542969 28.707031 16.929688 29.230469 C 17.332031 29.769531 17.859375 30.109375 18.503906 30.191406 C 19.339844 30.296875 20.195312 30.367188 21.011719 30.089844 C 21.585938 29.894531 22.128906 29.835938 22.703125 30.042969 C 23.46875 30.320312 24.289062 30.351562 25.046875 30.214844 C 26.460938 29.957031 27.835938 29.933594 29.25 30.210938 C 30.46875 30.449219 31.554688 30.121094 32.222656 28.875 C 34.167969 30.40625 36.191406 30.53125 38.324219 29.914062 C 38.726562 29.796875 39.132812 29.726562 39.558594 29.882812 C 41.222656 30.492188 42.867188 30.316406 44.597656 29.714844 C 44.773438 29.144531 44.757812 28.40625 45.46875 28.042969 C 46.070312 27.730469 46.609375 27.636719 48.21875 27.789062 C 48.082031 28.371094 47.890625 29 48.425781 29.496094 C 48.953125 29.988281 49.5625 30.242188 50.28125 30.246094 C 50.648438 30.246094 51.035156 30.308594 51.382812 30.226562 C 52.398438 29.992188 53.335938 29.746094 54.433594 30.117188 C 55.335938 30.421875 56.398438 30.261719 57.460938 30.308594 C 57.324219 31.101562 56.835938 31.59375 56.433594 32.125 C 52.964844 36.714844 48.984375 40.847656 44.929688 44.910156 C 41.210938 48.640625 37.398438 52.269531 33.285156 55.570312 C 31.847656 56.726562 30.328125 57.761719 28.667969 58.59375 C 27.664062 59.09375 26.671875 59.117188 25.613281 58.75 C 23.785156 58.121094 22.242188 57 20.757812 55.839844 C 16.726562 52.691406 12.960938 49.234375 9.476562 45.496094 C 6.574219 42.378906 3.601562 39.304688 1.375 35.628906 C 1.046875 35.089844 0.730469 34.539062 0.457031 33.972656 C -0.195312 32.601562 -0.144531 31.28125 0.574219 29.894531 C 1.675781 27.765625 3.171875 25.933594 4.683594 24.113281 C 9.203125 18.675781 14.253906 13.738281 19.367188 8.875 C 22.257812 6.125 25.222656 3.421875 28.648438 1.300781 C 28.738281 1.246094 28.828125 1.1875 28.910156 1.125 C 30.996094 -0.460938 33.054688 -0.273438 35.1875 1.089844 C 37.324219 2.453125 39.359375 3.949219 41.246094 5.632812 C 46.359375 10.191406 51.210938 15.011719 55.46875 20.402344 C 56.644531 21.894531 57.726562 23.441406 58.511719 25.1875 C 59.035156 26.359375 59.078125 27.484375 58.554688 28.683594 C 58.246094 29.394531 57.855469 29.679688 57.105469 29.507812 C 55.976562 29.253906 54.863281 28.964844 53.925781 28.316406 "/>
<path style=" stroke:none;fill-rule:nonzero;fill:rgb(25.248718%,62.464905%,80.522156%);fill-opacity:1;" d="M 69.101562 25.570312 C 69.074219 25.460938 69.046875 25.34375 69.015625 25.210938 C 68.980469 25.078125 68.953125 24.953125 68.921875 24.832031 C 68.894531 24.710938 68.867188 24.597656 68.84375 24.488281 C 68.824219 24.386719 68.808594 24.304688 68.800781 24.246094 L 68.78125 24.246094 C 68.769531 24.308594 68.753906 24.394531 68.734375 24.496094 C 68.714844 24.597656 68.691406 24.707031 68.664062 24.828125 C 68.632812 24.945312 68.605469 25.070312 68.570312 25.195312 C 68.539062 25.324219 68.511719 25.445312 68.484375 25.5625 L 68.160156 26.847656 L 69.417969 26.847656 Z M 70.082031 29.5 L 69.839844 28.53125 L 67.734375 28.53125 L 67.484375 29.5 L 65.046875 29.5 L 67.113281 22.71875 L 70.789062 22.71875 L 72.855469 29.5 L 70.082031 29.5 "/>
<path style=" stroke:none;fill-rule:nonzero;fill:rgb(25.248718%,62.464905%,80.522156%);fill-opacity:1;" d="M 78.292969 29.5 L 78.292969 22.71875 L 80.820312 22.71875 L 80.820312 29.5 L 78.292969 29.5 "/>
<path style=" stroke:none;fill-rule:nonzero;fill:rgb(25.248718%,62.464905%,80.522156%);fill-opacity:1;" d="M 90.808594 25.023438 C 90.808594 24.863281 90.777344 24.738281 90.714844 24.644531 C 90.648438 24.550781 90.570312 24.480469 90.472656 24.433594 C 90.378906 24.386719 90.269531 24.351562 90.152344 24.335938 C 90.03125 24.320312 89.917969 24.3125 89.808594 24.3125 L 89.339844 24.3125 L 89.339844 25.78125 L 89.878906 25.78125 C 89.984375 25.78125 90.09375 25.773438 90.203125 25.75 C 90.3125 25.726562 90.414062 25.6875 90.503906 25.632812 C 90.59375 25.578125 90.664062 25.503906 90.722656 25.402344 C 90.78125 25.304688 90.808594 25.175781 90.808594 25.023438 Z M 90.808594 29.5 L 89.992188 27.605469 C 89.949219 27.511719 89.90625 27.4375 89.863281 27.382812 C 89.824219 27.328125 89.78125 27.289062 89.742188 27.261719 C 89.707031 27.234375 89.667969 27.21875 89.628906 27.214844 C 89.589844 27.207031 89.550781 27.203125 89.511719 27.203125 L 89.339844 27.203125 L 89.339844 29.5 L 86.8125 29.5 L 86.8125 22.71875 L 90.058594 22.71875 C 90.273438 22.71875 90.5 22.722656 90.746094 22.738281 C 90.992188 22.75 91.238281 22.78125 91.476562 22.832031 C 91.71875 22.886719 91.949219 22.957031 92.167969 23.050781 C 92.390625 23.144531 92.585938 23.269531 92.753906 23.429688 C 92.925781 23.589844 93.058594 23.785156 93.15625 24.019531 C 93.257812 24.253906 93.308594 24.535156 93.308594 24.871094 C 93.308594 25.121094 93.269531 25.34375 93.1875 25.539062 C 93.105469 25.734375 93.007812 25.898438 92.886719 26.035156 C 92.761719 26.175781 92.628906 26.289062 92.484375 26.382812 C 92.34375 26.476562 92.210938 26.542969 92.085938 26.589844 C 92.175781 26.757812 92.296875 26.96875 92.449219 27.234375 C 92.597656 27.496094 92.753906 27.769531 92.917969 28.050781 C 93.082031 28.332031 93.238281 28.601562 93.394531 28.859375 C 93.546875 29.121094 93.671875 29.332031 93.769531 29.5 L 90.808594 29.5 "/>
<path style=" stroke:none;fill-rule:nonzero;fill:rgb(25.248718%,62.464905%,80.522156%);fill-opacity:1;" d="M 107.929688 29.5 L 104.449219 29.5 L 103.960938 26.136719 C 103.921875 25.886719 103.890625 25.636719 103.867188 25.390625 C 103.847656 25.140625 103.828125 24.945312 103.816406 24.8125 L 103.796875 24.8125 C 103.789062 24.882812 103.78125 24.96875 103.773438 25.070312 C 103.765625 25.175781 103.753906 25.285156 103.738281 25.402344 C 103.726562 25.523438 103.714844 25.644531 103.699219 25.773438 C 103.6875 25.902344 103.671875 26.023438 103.652344 26.136719 L 103.164062 29.5 L 99.675781 29.5 L 98.617188 22.71875 L 101.261719 22.71875 L 101.636719 26.570312 C 101.640625 26.679688 101.648438 26.796875 101.660156 26.921875 C 101.667969 27.046875 101.675781 27.164062 101.683594 27.28125 C 101.6875 27.398438 101.695312 27.503906 101.703125 27.601562 C 101.710938 27.703125 101.714844 27.78125 101.714844 27.839844 L 101.730469 27.839844 C 101.742188 27.691406 101.765625 27.5 101.792969 27.261719 C 101.824219 27.023438 101.855469 26.792969 101.886719 26.570312 L 102.421875 22.71875 L 105.554688 22.71875 L 106.09375 26.570312 C 106.125 26.8125 106.15625 27.054688 106.183594 27.296875 C 106.214844 27.535156 106.234375 27.71875 106.246094 27.839844 L 106.265625 27.839844 C 106.265625 27.78125 106.269531 27.699219 106.273438 27.597656 C 106.28125 27.496094 106.289062 27.386719 106.296875 27.265625 C 106.300781 27.148438 106.308594 27.027344 106.316406 26.90625 C 106.328125 26.785156 106.339844 26.671875 106.351562 26.570312 L 106.71875 22.71875 L 108.984375 22.71875 L 107.929688 29.5 "/>
<path style=" stroke:none;fill-rule:nonzero;fill:rgb(25.248718%,62.464905%,80.522156%);fill-opacity:1;" d="M 117.90625 25.570312 C 117.882812 25.460938 117.855469 25.34375 117.820312 25.210938 C 117.789062 25.078125 117.757812 24.953125 117.730469 24.832031 C 117.699219 24.710938 117.675781 24.597656 117.652344 24.488281 C 117.632812 24.386719 117.617188 24.304688 117.609375 24.246094 L 117.589844 24.246094 C 117.578125 24.308594 117.5625 24.394531 117.542969 24.496094 C 117.523438 24.597656 117.5 24.707031 117.472656 24.828125 C 117.441406 24.945312 117.410156 25.070312 117.378906 25.195312 C 117.347656 25.324219 117.316406 25.445312 117.292969 25.5625 L 116.96875 26.847656 L 118.226562 26.847656 Z M 118.886719 29.5 L 118.648438 28.53125 L 116.542969 28.53125 L 116.292969 29.5 L 113.855469 29.5 L 115.921875 22.71875 L 119.597656 22.71875 L 121.664062 29.5 L 118.886719 29.5 "/>
<path style=" stroke:none;fill-rule:nonzero;fill:rgb(25.248718%,62.464905%,80.522156%);fill-opacity:1;" d="M 131.492188 27.347656 L 131.492188 29.5 L 128.953125 29.5 L 128.953125 27.347656 L 126.582031 22.71875 L 129.464844 22.71875 L 130.433594 25.246094 L 131.25 22.71875 L 133.796875 22.71875 L 131.492188 27.347656 "/>
<g clip-path="url(#clip1)" clip-rule="nonzero">
<path style=" stroke:none;fill-rule:nonzero;fill:rgb(25.248718%,62.464905%,80.522156%);fill-opacity:1;" d="M 144.265625 27.097656 C 144.265625 27.535156 144.1875 27.910156 144.019531 28.230469 C 143.859375 28.550781 143.632812 28.816406 143.34375 29.03125 C 143.058594 29.242188 142.722656 29.398438 142.335938 29.503906 C 141.953125 29.609375 141.539062 29.664062 141.097656 29.664062 C 140.71875 29.664062 140.34375 29.644531 139.96875 29.605469 C 139.59375 29.566406 139.25 29.503906 138.9375 29.414062 L 139.289062 27.578125 C 139.464844 27.65625 139.667969 27.722656 139.898438 27.78125 C 140.136719 27.839844 140.394531 27.867188 140.675781 27.867188 C 140.769531 27.867188 140.867188 27.863281 140.960938 27.851562 C 141.058594 27.84375 141.144531 27.820312 141.222656 27.785156 C 141.300781 27.75 141.363281 27.703125 141.414062 27.644531 C 141.464844 27.589844 141.488281 27.511719 141.488281 27.414062 C 141.488281 27.300781 141.445312 27.210938 141.359375 27.152344 C 141.273438 27.089844 141.175781 27.039062 141.058594 26.992188 L 140.703125 26.859375 C 140.503906 26.78125 140.304688 26.695312 140.097656 26.597656 C 139.894531 26.503906 139.710938 26.382812 139.546875 26.234375 C 139.382812 26.085938 139.25 25.910156 139.144531 25.710938 C 139.042969 25.507812 138.992188 25.265625 138.992188 24.976562 C 138.992188 24.566406 139.070312 24.207031 139.222656 23.90625 C 139.378906 23.601562 139.589844 23.347656 139.855469 23.144531 C 140.128906 22.945312 140.441406 22.792969 140.804688 22.691406 C 141.164062 22.585938 141.554688 22.535156 141.972656 22.535156 C 142.316406 22.535156 142.671875 22.554688 143.035156 22.597656 C 143.402344 22.640625 143.742188 22.699219 144.054688 22.777344 L 143.710938 24.542969 C 143.550781 24.460938 143.351562 24.390625 143.109375 24.335938 C 142.867188 24.28125 142.621094 24.253906 142.363281 24.253906 C 142.121094 24.253906 141.957031 24.296875 141.875 24.375 C 141.792969 24.457031 141.75 24.535156 141.75 24.609375 C 141.75 24.765625 141.878906 24.886719 142.132812 24.976562 L 142.519531 25.121094 C 142.730469 25.195312 142.9375 25.289062 143.148438 25.394531 C 143.355469 25.5 143.542969 25.628906 143.710938 25.777344 C 143.875 25.929688 144.011719 26.109375 144.113281 26.324219 C 144.214844 26.539062 144.265625 26.796875 144.265625 27.097656 "/>
</g>
</g>
</svg>

<svg xmlns="http://www.w3.org/2000/svg" width="192.36" height="59pt" viewBox="0 0 144.27 59"><defs><clipPath id="a"><path d="M138 22h6.27v8H138Zm0 0"/></clipPath></defs><path d="M13.816 24.602c.54-.418 1.18-.754 1.336-1.54-.25-.582-.609-.992-1.238-1.23-.676.36-1.266.809-1.492 1.668.344.406.625.84 1.394 1.102m40.11 3.714c-2.504 1.082-2.735 1.075-3.59-.074.266-.644.758-.344 1.207-.308 1.098.086 1.277-.063 1.766-1.313-.446-.312-.961-.445-1.48-.46-2.044-.06-4.083-.384-6.122-.052-.21.036-.422.047-.625.098-1.645.387-1.953.95-1.422 2.566.031.098.035.207.063.399-1.512.363-2.703-.168-3.766-1.184.074-.113.094-.172.125-.183.586-.16 1.422-.16 1.207-1.075-.187-.796-.98-.675-1.594-.632-1.566.113-2.156 1.023-1.715 2.582.043.148.067.3.114.515-1.532.305-2.766-.152-3.848-1.234.145-.11.211-.207.29-.215.632-.058 1.234-.219 1.081-1.012-.125-.644-.746-.644-1.281-.652-1.547-.023-2.246.707-2.332 2.43-.332.218-.711.144-1.07.152-.735.016-1.465.004-2.395.004.508-.902 1.793-.93 1.676-2.055a.73.73 0 0 0-.586-.441c-1.207-.145-2.422-.125-3.633-.063-.629.032-.914.414-.93 1.012.489.453 1.18.09 1.649.488.137.477-.266.66-.516.88-.332.292-.117.683-.304 1.073-1.18-.23-2.32-.542-3.286-1.43-.605.473-1.191.907-1.964.954-.497.031-.942-.055-1.344-.332-.18-.125-.281-.324-.223-.547a.48.48 0 0 1 .453-.379c.254-.008.512.094.774.117 1.183.098 1.36-.03 1.894-1.351-1.758-.676-10.137-.735-11.71-.047.023.894.593 1.363 1.335 1.633.274 1.953-.308 6.195-1.304 9.644 1.808-.984 2.976-4.644 4.218-10.039.742-.18 1.516-.11 2.36-.055 0 .543-.555.977-.168 1.5.402.54.93.88 1.574.961.836.106 1.691.176 2.508-.101.574-.195 1.117-.254 1.691-.047.766.277 1.586.309 2.344.172 1.414-.258 2.789-.281 4.203-.004 1.219.238 2.305-.09 2.973-1.336 1.945 1.531 3.968 1.656 6.101 1.04.403-.118.809-.188 1.235-.032 1.664.61 3.308.433 5.039-.168.175-.57.16-1.309.87-1.672.602-.313 1.141-.406 2.75-.254-.136.582-.327 1.211.208 1.707.527.492 1.136.746 1.855.75.367 0 .754.063 1.102-.02 1.015-.234 1.953-.48 3.05-.109.903.305 1.965.145 3.028.192-.137.793-.625 1.285-1.027 1.816-3.47 4.59-7.45 8.723-11.504 12.785-3.72 3.73-7.532 7.36-11.645 10.66-1.437 1.157-2.957 2.192-4.617 3.024-1.004.5-1.996.523-3.055.156-1.828-.629-3.37-1.75-4.855-2.91A97 97 0 0 1 9.477 45.496c-2.903-3.117-5.875-6.191-8.102-9.867-.328-.54-.645-1.09-.918-1.656-.652-1.371-.602-2.692.117-4.078 1.102-2.13 2.598-3.961 4.11-5.782 4.52-5.437 9.57-10.375 14.683-15.238 2.89-2.75 5.856-5.453 9.281-7.574q.137-.082.262-.176c2.086-1.586 4.145-1.398 6.278-.035 2.136 1.363 4.171 2.86 6.058 4.543 5.113 4.558 9.965 9.379 14.223 14.77 1.176 1.492 2.258 3.038 3.043 4.785.523 1.171.566 2.296.043 3.496-.309.71-.7.996-1.45.824-1.128-.254-2.242-.543-3.18-1.192M69.102 25.57c-.028-.11-.055-.226-.086-.36-.036-.132-.063-.257-.094-.378q-.042-.18-.078-.344a5 5 0 0 1-.043-.242h-.02l-.047.25q-.03.152-.07.332c-.031.117-.059.242-.094.367l-.086.367-.324 1.286h1.258Zm.98 3.93-.242-.969h-2.106l-.25.969h-2.437l2.066-6.781h3.676l2.066 6.781zM78.293 29.5v-6.781h2.527V29.5zM90.809 25.023a.67.67 0 0 0-.094-.378.6.6 0 0 0-.242-.211 1 1 0 0 0-.32-.098 3 3 0 0 0-.344-.023h-.47v1.468h.54q.159.002.324-.031a1 1 0 0 0 .3-.117.6.6 0 0 0 .22-.23.74.74 0 0 0 .086-.38m0 4.477-.817-1.895a1 1 0 0 0-.129-.222.5.5 0 0 0-.12-.121.2.2 0 0 0-.114-.047.6.6 0 0 0-.117-.012h-.172V29.5h-2.528v-6.781h3.247q.32-.002.687.02c.246.011.492.042.73.093.243.055.473.125.692.219q.334.14.586.379.257.239.402.59.153.349.153.851a1.7 1.7 0 0 1-.422 1.164q-.186.209-.403.348c-.14.094-.273.16-.398.207.09.168.21.379.363.644q.223.394.469.817c.164.281.32.55.477.808.152.262.277.473.375.641zM107.93 29.5h-3.48l-.49-3.363q-.058-.376-.093-.746c-.02-.25-.039-.446-.05-.578h-.02a8 8 0 0 0-.024.257q-.012.158-.035.332-.016.18-.039.371-.017.194-.047.364l-.488 3.363h-3.488l-1.059-6.781h2.645l.375 3.851q.006.165.023.352l.024.36q.006.173.02.32.01.151.01.238h.016c.012-.149.036-.34.063-.578q.046-.358.094-.692l.535-3.851h3.133l.539 3.851q.047.363.09.727c.03.238.05.422.062.543h.02q.001-.089.007-.242l.024-.332q.007-.178.02-.36.017-.181.035-.336l.367-3.851h2.265zM117.906 25.57a8 8 0 0 0-.086-.36q-.046-.197-.09-.378-.043-.18-.078-.344a5 5 0 0 1-.043-.242h-.02a10.653 10.653 0 0 1-.117.582l-.093.367c-.031.13-.063.25-.086.367l-.324 1.286h1.258Zm.98 3.93-.238-.969h-2.105l-.25.969h-2.438l2.067-6.781h3.676l2.066 6.781zM131.492 27.348V29.5h-2.539v-2.152l-2.371-4.63h2.883l.969 2.528.816-2.527h2.547z" style="stroke:none;fill-rule:nonzero;fill:#409fcd;fill-opacity:1"/><g clip-path="url(#a)"><path d="M144.266 27.098c0 .437-.078.812-.246 1.132q-.241.48-.676.801-.428.315-1.008.473-.576.159-1.238.16c-.38 0-.754-.02-1.13-.059a6 6 0 0 1-1.03-.19l.351-1.837q.264.116.61.203a3.3 3.3 0 0 0 1.062.07.8.8 0 0 0 .262-.066.54.54 0 0 0 .191-.14q.075-.083.074-.23a.3.3 0 0 0-.129-.263 1.4 1.4 0 0 0-.3-.16l-.356-.133a10 10 0 0 1-.605-.261 2.2 2.2 0 0 1-.551-.364 1.9 1.9 0 0 1-.402-.523 1.6 1.6 0 0 1-.153-.734c0-.41.078-.77.23-1.07q.236-.458.633-.762c.274-.2.586-.352.95-.454a4.1 4.1 0 0 1 1.168-.156 9 9 0 0 1 2.082.242l-.344 1.766a2.6 2.6 0 0 0-.602-.207 3.4 3.4 0 0 0-.746-.082q-.364.002-.488.121-.124.123-.125.234.001.234.383.368l.387.144q.313.113.628.274.31.159.563.382c.164.153.3.332.402.547q.153.322.153.774" style="stroke:none;fill-rule:nonzero;fill:#409fcd;fill-opacity:1"/></g></svg>
